Icons/com_tul_aviate.svg

<svg viewBox="0 0 48 48" xmlns:xlink="http://www.w3.org/1999/xlink">
 <defs>
  <linearGradient id="0">
   <stop stop-opacity="0"/>
   <stop offset="1"/>
  </linearGradient>
  <linearGradient xlink:href="#0" id="1" gradientUnits="userSpaceOnUse" gradientTransform="translate(4e-7,-48)" y1="47" x2="0" y2="1"/>
  <clipPath id="2">
   <g transform="translate(0,-1004.3622)">
    <rect rx="4" y="1005.36" x="1" height="46" width="46" fill="#1890d0"/>
   </g>
  </clipPath>
  <clipPath id="3">
   <g transform="translate(0,-1004.3622)">
    <rect rx="4" y="1005.36" x="1" height="46" width="46" fill="#1890d0"/>
   </g>
  </clipPath>
 </defs>
 <g>
  <g transform="translate(0,-1004.3622)">
   <path d="m 5,1006.3622 c -2.216,0 -4,1.784 -4,4 l 0,37.25 c 0,2.216 1.784,4 4,4 l 38,0 c 2.216,0 4,-1.784 4,-4 l 0,-37.25 c 0,-2.216 -1.784,-4 -4,-4 l -38,0 z m -4,41.5 0,0.5 c 0,2.216 1.784,4 4,4 l 38,0 c 2.216,0 4,-1.784 4,-4 l 0,-0.5 c 0,2.216 -1.784,4 -4,4 l -38,0 c -2.216,0 -4,-1.784 -4,-4 z" opacity="0.02"/>
   <path d="m 1,1047.6122 0,0.25 c 0,2.216 1.784,4 4,4 l 38,0 c 2.216,0 4,-1.784 4,-4 l 0,-0.25 c 0,2.216 -1.784,4 -4,4 l -38,0 c -2.216,0 -4,-1.784 -4,-4 z" opacity="0.05"/>
   <rect width="46" height="46" x="1" y="1005.61" rx="4" opacity="0.1"/>
  </g>
 </g>
 <g>
  <g transform="translate(0,-1004.3622)">
   <rect rx="4" y="1005.36" x="1" height="46" width="46" fill="#e7e7e7"/>
  </g>
 </g>
 <g>
  <rect transform="scale(1,-1)" width="46" height="46" x="1" y="-46.998" rx="4" opacity="0.1" fill="url(#1)"/>
 </g>
 <g>
  <g clip-path="url(#2)">
   <g opacity="0.1">
    <g>
     <path d="M 22 6.003906 L 15 18.003906 L 33 18.003906 L 26 6.003906 Z M 24 9.003906 L 28 15.003906 L 20 15.003906 Z M 24 9.003906 "/>
     <path d="M 15 18.003906 L 27 18.003906 L 27 24.003906 L 21 24.003906 L 21 30.003906 L 15 30.003906 Z M 15 18.003906 "/>
     <path d="M 27 18 L 33 18 L 33 24 L 27 24 Z M 27 18 "/>
     <path d="M 15 30 L 21 30 L 21 36 L 15 36 Z M 15 30 "/>
     <path d="M 27 24 L 33 24 L 33 30 L 27 30 Z M 27 24 "/>
     <path d="M 21 24 L 27 24 L 27 30 L 21 30 Z M 21 24 "/>
     <path d="M 21 30 L 27 30 L 27 36 L 21 36 Z M 21 30 "/>
     <path d="M 15 36 L 21 36 L 21 42 L 15 42 Z M 15 36 "/>
    </g>
   </g>
  </g>
 </g>
 <g>
  <g clip-path="url(#3)">
   <g transform="translate(0,-1)">
    <g>
     <path d="M 22 6.003906 L 15 18.003906 L 33 18.003906 L 26 6.003906 Z M 24 9.003906 L 28 15.003906 L 20 15.003906 Z M 24 9.003906 " fill="#535353"/>
     <path d="M 15 18.003906 L 27 18.003906 L 27 24.003906 L 21 24.003906 L 21 30.003906 L 15 30.003906 Z M 15 18.003906 " fill="#eb5b5b"/>
     <path d="M 27 18 L 33 18 L 33 24 L 27 24 Z M 27 18 " fill="#f49c71"/>
     <path d="M 15 30 L 21 30 L 21 36 L 15 36 Z M 15 30 " fill="#f49c71"/>
     <path d="M 27 24 L 33 24 L 33 30 L 27 30 Z M 27 24 " fill="#fade7f"/>
     <path d="M 21 24 L 27 24 L 27 30 L 21 30 Z M 21 24 " fill="#f49c71"/>
     <path d="M 21 30 L 27 30 L 27 36 L 21 36 Z M 21 30 " fill="#fade7f"/>
     <path d="M 15 36 L 21 36 L 21 42 L 15 42 Z M 15 36 " fill="#fade7f"/>
    </g>
   </g>
  </g>
 </g>
 <g>
  <g transform="translate(0,-1004.3622)">
   <path d="m 1,1043.3622 0,4 c 0,2.216 1.784,4 4,4 l 38,0 c 2.216,0 4,-1.784 4,-4 l 0,-4 c 0,2.216 -1.784,4 -4,4 l -38,0 c -2.216,0 -4,-1.784 -4,-4 z" opacity="0.1"/>
  </g>
 </g>
</svg>

<svg viewBox="0 0 48 48"><defs><linearGradient id="linearGradient3764" x1="1" x2="47" gradientUnits="userSpaceOnUse" gradientTransform="translate(-48.000001,0.00221467)"><stop stop-color="#ddd" stop-opacity="1"/><stop offset="1" stop-color="#e7e7e7" stop-opacity="1"/></linearGradient><clipPath id="clipPath-386465963"><g transform="translate(0,-1004.3622)"><rect rx="4" y="1005.36" x="1" height="46" width="46" fill="#1890d0"/></g></clipPath><clipPath id="clipPath-399238776"><g transform="translate(0,-1004.3622)"><rect rx="4" y="1005.36" x="1" height="46" width="46" fill="#1890d0"/></g></clipPath></defs><g><path d="m 1 43 l 0 0.25 c 0 2.216 1.784 4 4 4 l 38 0 c 2.216 0 4 -1.784 4 -4 l 0 -0.25 c 0 2.216 -1.784 4 -4 4 l -38 0 c -2.216 0 -4 -1.784 -4 -4 z m 0 0.5 l 0 0.5 c 0 2.216 1.784 4 4 4 l 38 0 c 2.216 0 4 -1.784 4 -4 l 0 -0.5 c 0 2.216 -1.784 4 -4 4 l -38 0 c -2.216 0 -4 -1.784 -4 -4 z" opacity="0.02"/><path d="m 1 43.25 l 0 0.25 c 0 2.216 1.784 4 4 4 l 38 0 c 2.216 0 4 -1.784 4 -4 l 0 -0.25 c 0 2.216 -1.784 4 -4 4 l -38 0 c -2.216 0 -4 -1.784 -4 -4 z" opacity="0.05"/><path d="m 1 43 l 0 0.25 c 0 2.216 1.784 4 4 4 l 38 0 c 2.216 0 4 -1.784 4 -4 l 0 -0.25 c 0 2.216 -1.784 4 -4 4 l -38 0 c -2.216 0 -4 -1.784 -4 -4 z" opacity="0.1"/></g><g><rect width="46" height="46" x="-47" y="1" rx="4" transform="matrix(0,-1,1,0,0,0)" fill="url(#linearGradient3764)" fill-opacity="1"/></g><g><g clip-path="url(#clipPath-386465963)"><g opacity="0.1"><!-- color: #e7e7e7 --><g><path d="m 22 6 l -7 12 l 18 0 l -7 -12 m -2 3 l 4 6 l -8 0 m 4 -6" fill="#000"/><path d="m 15 18 l 12 0 l 0 6 l -6 0 l 0 6 l -6 0 m 0 -12" fill="#000"/><path d="m 27 18 l 6 0 l 0 6 l -6 0 m 0 -6" fill="#000"/><path d="m 15 30 l 6 0 l 0 6 l -6 0 m 0 -6" fill="#000"/><path d="m 27 24 l 6 0 l 0 6 l -6 0 m 0 -6" fill="#000"/><path d="m 21 24 l 6 0 l 0 6 l -6 0 m 0 -6" fill="#000"/><path d="m 21 30 l 6 0 l 0 6 l -6 0 m 0 -6" fill="#000"/><path d="m 15 36 l 6 0 l 0 6 l -6 0 m 0 -6" fill="#000"/></g></g></g></g><g><g clip-path="url(#clipPath-399238776)"><g transform="translate(0,-1)"><!-- color: #e7e7e7 --><g><path d="m 22 6 l -7 12 l 18 0 l -7 -12 m -2 3 l 4 6 l -8 0 m 4 -6" fill="#535353"/><path d="m 15 18 l 12 0 l 0 6 l -6 0 l 0 6 l -6 0 m 0 -12" fill="#eb5b5b"/><path d="m 27 18 l 6 0 l 0 6 l -6 0 m 0 -6" fill="#f49c71"/><path d="m 15 30 l 6 0 l 0 6 l -6 0 m 0 -6" fill="#f49c71"/><path d="m 27 24 l 6 0 l 0 6 l -6 0 m 0 -6" fill="#fade7f"/><path d="m 21 24 l 6 0 l 0 6 l -6 0 m 0 -6" fill="#f49c71"/><path d="m 21 30 l 6 0 l 0 6 l -6 0 m 0 -6" fill="#fade7f"/><path d="m 15 36 l 6 0 l 0 6 l -6 0 m 0 -6" fill="#fade7f"/></g></g></g></g><g><g transform="translate(0,-1004.3622)"><path d="m 1 1043.36 0 4 c 0 2.216 1.784 4 4 4 l 38 0 c 2.216 0 4 -1.784 4 -4 l 0 -4 c 0 2.216 -1.784 4 -4 4 l -38 0 c -2.216 0 -4 -1.784 -4 -4 z" opacity="0.1"/></g></g></svg>
